Newaita-dark/actions/32/stroke-cap-round.svg

<svg height="32" viewBox="0 0 32 32" width="32" xmlns="http://www.w3.org/2000/svg"><path d="m15.875 2.894531c-6.59375 0-11.90625 4.722657-11.90625 10.585938v15.875h9.261719v-15.214844c0-1.097656 1.179687-1.984375 2.644531-1.984375 1.46875 0 2.648438.886719 2.648438 1.984375v15.214844h9.261718v-15.875c0-5.863281-5.3125-10.585938-11.910156-10.585938zm0 2.648438c5.132812 0 9.261719 3.539062 9.261719 7.9375v13.230469h-3.96875v-12.570313c0-2.5625-2.359375-4.628906-5.292969-4.628906-2.929688 0-5.289062 2.066406-5.289062 4.628906v12.570313h-3.972657v-13.230469c0-4.398438 4.132813-7.9375 9.261719-7.9375zm0 0" fill="#e0e0e0"/></svg>

<svg xmlns="http://www.w3.org/2000/svg" xmlns:xlink="http://www.w3.org/1999/xlink" width="32px" height="32px" viewBox="0 0 32 32" version="1.1">
<g id="surface1">
     <defs>
  <style id="current-color-scheme" type="text/css">
   .ColorScheme-Text { color:#eeeeee; } .ColorScheme-Highlight { color:#424242; }
  </style>
 </defs>
<path style="fill:currentColor" class="ColorScheme-Text" d="M 15.875 2.894531 C 9.28125 2.894531 3.96875 7.617188 3.96875 13.480469 L 3.96875 29.355469 L 13.230469 29.355469 L 13.230469 14.140625 C 13.230469 13.042969 14.410156 12.15625 15.875 12.15625 C 17.34375 12.15625 18.523438 13.042969 18.523438 14.140625 L 18.523438 29.355469 L 27.785156 29.355469 L 27.785156 13.480469 C 27.785156 7.617188 22.472656 2.894531 15.875 2.894531 Z M 15.875 5.542969 C 21.007812 5.542969 25.136719 9.082031 25.136719 13.480469 L 25.136719 26.710938 L 21.167969 26.710938 L 21.167969 14.140625 C 21.167969 11.578125 18.808594 9.511719 15.875 9.511719 C 12.945312 9.511719 10.585938 11.578125 10.585938 14.140625 L 10.585938 26.710938 L 6.613281 26.710938 L 6.613281 13.480469 C 6.613281 9.082031 10.746094 5.542969 15.875 5.542969 Z M 15.875 5.542969 "/>
</g>
</svg>
